X: 1119
T: Eileen O'Riordan's
B: max new tunes
B: steve tunes
M:12/8
Q: 3/8=99
K:Amixolydian
V:1 
|:"Am"E2A ABA "G"G2A B2d|"Am"e2A ABA "G"G2E E2D|
"Am"E2A ABA "G"G2A B2d|"Am"efe "G"dcB "Am"A3 A2F:|
|:"Am"e2e efe "G"d2d dcd|"Am"e2A ABA "Em"G2E "D"F2D|
"Am"E2A ABA "G"G2A B2d|"Am"efe "G"dcB "Am"A3 A2c:|
% abcbook-tune_id 62b5b3cccece1d7a3790d25e


% abcbook-boost 10
% abcbook-tablature 
% abcbook-transpose 
% abcbook-lastupdated 1656137779371
% abcbook-soundfonts 
% abcbook-repeats 3


